images/sushi.svg

<svg height="250" viewBox="0 0 250 250" width="250" xmlns="http://www.w3.org/2000/svg" xmlns:xlink="http://www.w3.org/1999/xlink"><linearGradient id="a"><stop offset="0" stop-color="#03b8ff"/><stop offset="1" stop-color="#fa52a0"/></linearGradient><linearGradient id="b" gradientTransform="scale(.563063 .561798)" gradientUnits="userSpaceOnUse" x1="159.192001" x2="239.042007" xlink:href="#a" y1="-9.98489" y2="241.983002"/><linearGradient id="c" gradientTransform="scale(.563063 .561798)" gradientUnits="userSpaceOnUse" x1="215.518997" x2="295.372009" xlink:href="#a" y1="-27.8377" y2="224.132004"/><path d="m51.585938 14.863281 194.203124 143.976563-48.027343 77.089844-194.207031-145.113282zm0 0" fill="url(#b)"/><path d="m245.789062 158.839844c-16.703124 26.074218-73.085937 15.871094-126.335937-24.941406-54.292969-39.679688-83.53125-92.960938-67.867187-119.035157 16.707031-26.078125 73.085937-15.875 126.335937 24.9375 54.296875 38.546875 83.53125 92.964844 67.867187 119.039063zm0 0" fill="url(#c)"/><path d="m197.761719 234.796875c-16.707031 26.074219-73.089844 15.871094-126.339844-24.941406s-83.527344-92.964844-66.820313-120.171875c16.703126-26.074219 73.085938-15.871094 126.335938 24.941406s82.484375 94.09375 66.824219 120.171875zm0 0" fill="#0e0f23"/><path d="m245.789062 158.839844-48.027343 77.089844c-16.707031 26.074218-73.089844 14.738281-126.339844-24.941407-10.4375-7.9375-19.835937-15.871093-29.234375-24.941406 7.308594-1.132813 16.707031-5.667969 26.105469-17.003906 16.703125-19.273438 25.058593-23.808594 32.367187-22.675781 7.308594 0 15.660156 7.9375 29.234375 27.210937 13.574219 19.269531 32.367188 24.9375 43.851563 14.734375 1.046875-1.132812 2.089844-1.132812 3.132812-2.265625 9.398438-7.9375 12.53125-11.335937 30.28125-47.613281 4.175782-9.070313 18.792969-23.808594 38.628906-17.007813 5.222657 14.738281 5.222657 27.210938 0 37.414063zm0 0" fill="#0e0f23"/><g fill="#fff"><path d="m238.480469 154.304688c-14.617188 22.671874-65.777344 11.335937-114.851563-26.074219-50.117187-37.414063-79.351562-85.027344-64.734375-107.699219 14.617188-22.675781 65.777344-11.339844 114.851563 26.074219 49.074218 37.410156 78.308594 85.023437 64.734375 107.699219zm-45.9375-34.011719c-7.3125 11.335937-32.371094 5.667969-57.429688-12.46875-24.011719-18.140625-38.632812-41.945313-31.320312-53.285157 7.308593-11.335937 32.367187-5.667968 57.425781 12.472657 24.011719 18.136719 38.632812 41.945312 31.324219 53.28125zm0 0" fill-rule="evenodd"/><path d="m47.410156 40.9375c0-1.136719-1.046875-2.269531-2.089844-1.136719-1.042968 1.136719-2.089843 1.136719-2.089843 2.269531 1.046875 3.398438 2.089843 5.667969 2.089843 7.933594 0 1.136719 1.042969 2.269532 2.089844 1.136719 1.042969 0 2.085938-1.136719 1.042969-2.269531 0-2.265625 0-4.535156-1.042969-7.933594zm0 0"/><path d="m52.628906 59.074219c0-1.132813-1.042968-2.265625-2.085937-1.132813-1.046875 1.132813-1.046875 1.132813-1.046875 2.265625 11.488281 28.34375 35.5 58.953125 66.824218 81.625 1.042969 1.136719 2.089844 0 3.132813 0 1.042969-1.132812 0-2.265625 0-3.398437-32.367187-22.675782-55.339844-52.152344-66.824219-79.359375zm0 0"/><path d="m178.96875 170.175781c-1.046875 0-2.089844 0-2.089844 1.132813 0 1.132812 0 2.269531 1.042969 2.269531 3.132813 1.132813 7.308594 2.265625 10.441406 3.398437 1.046875 0 2.089844 0 2.089844-1.132812s0-2.265625-1.042969-2.265625c-3.132812-1.136719-7.308594-2.269531-10.441406-3.402344zm0 0"/><path d="m197.761719 174.710938c-1.042969 0-2.089844 1.132812-2.089844 2.265624 0 1.132813 1.046875 2.269532 2.089844 2.269532 8.351562 1.132812 17.75 2.265625 25.058593 1.132812 1.042969 0 2.089844-1.132812 2.089844-2.269531 0-1.132813-1.046875-2.265625-2.089844-2.265625-8.351562 1.132812-16.707031 0-25.058593-1.132812zm0 0"/></g></svg>

<svg xmlns="http://www.w3.org/2000/svg" xmlns:xlink="http://www.w3.org/1999/xlink" width="250px" height="250px" viewBox="0 0 250 250" version="1.1">
<defs>
<linearGradient id="linear0" gradientUnits="userSpaceOnUse" x1="159.192001" y1="-9.98489" x2="239.042007" y2="241.983002" gradientTransform="matrix(0.563063,0,0,0.561798,0,0)">
<stop offset="0" style="stop-color:rgb(1.176471%,72.156864%,100%);stop-opacity:1;"/>
<stop offset="1" style="stop-color:rgb(98.039216%,32.156864%,62.7451%);stop-opacity:1;"/>
</linearGradient>
<linearGradient id="linear1" gradientUnits="userSpaceOnUse" x1="215.518997" y1="-27.8377" x2="295.372009" y2="224.132004" gradientTransform="matrix(0.563063,0,0,0.561798,0,0)">
<stop offset="0" style="stop-color:rgb(1.176471%,72.156864%,100%);stop-opacity:1;"/>
<stop offset="1" style="stop-color:rgb(98.039216%,32.156864%,62.7451%);stop-opacity:1;"/>
</linearGradient>
</defs>
<g id="surface1">
<path style=" stroke:none;fill-rule:nonzero;fill:url(#linear0);" d="M 51.585938 14.863281 L 245.789062 158.839844 L 197.761719 235.929688 L 3.554688 90.816406 Z M 51.585938 14.863281 "/>
<path style=" stroke:none;fill-rule:nonzero;fill:url(#linear1);" d="M 245.789062 158.839844 C 229.085938 184.914062 172.703125 174.710938 119.453125 133.898438 C 65.160156 94.21875 35.921875 40.9375 51.585938 14.863281 C 68.292969 -11.214844 124.671875 -1.011719 177.921875 39.800781 C 232.21875 78.347656 261.453125 132.765625 245.789062 158.839844 Z M 245.789062 158.839844 "/>
<path style=" stroke:none;fill-rule:nonzero;fill:rgb(5.490196%,5.882353%,13.725491%);fill-opacity:1;" d="M 197.761719 234.796875 C 181.054688 260.871094 124.671875 250.667969 71.421875 209.855469 C 18.171875 169.042969 -12.105469 116.890625 4.601562 89.683594 C 21.304688 63.609375 77.6875 73.8125 130.9375 114.625 C 184.1875 155.4375 213.421875 208.71875 197.761719 234.796875 Z M 197.761719 234.796875 "/>
<path style=" stroke:none;fill-rule:nonzero;fill:rgb(5.490196%,5.882353%,13.725491%);fill-opacity:1;" d="M 245.789062 158.839844 L 197.761719 235.929688 C 181.054688 262.003906 124.671875 250.667969 71.421875 210.988281 C 60.984375 203.050781 51.585938 195.117188 42.1875 186.046875 C 49.496094 184.914062 58.894531 180.378906 68.292969 169.042969 C 84.996094 149.769531 93.351562 145.234375 100.660156 146.367188 C 107.96875 146.367188 116.320312 154.304688 129.894531 173.578125 C 143.46875 192.847656 162.261719 198.515625 173.746094 188.3125 C 174.792969 187.179688 175.835938 187.179688 176.878906 186.046875 C 186.277344 178.109375 189.410156 174.710938 207.160156 138.433594 C 211.335938 129.363281 225.953125 114.625 245.789062 121.425781 C 251.011719 136.164062 251.011719 148.636719 245.789062 158.839844 Z M 245.789062 158.839844 "/>
<path style=" stroke:none;fill-rule:evenodd;fill:rgb(100%,100%,100%);fill-opacity:1;" d="M 238.480469 154.304688 C 223.863281 176.976562 172.703125 165.640625 123.628906 128.230469 C 73.511719 90.816406 44.277344 43.203125 58.894531 20.53125 C 73.511719 -2.144531 124.671875 9.191406 173.746094 46.605469 C 222.820312 84.015625 252.054688 131.628906 238.480469 154.304688 Z M 192.542969 120.292969 C 185.230469 131.628906 160.171875 125.960938 135.113281 107.824219 C 111.101562 89.683594 96.480469 65.878906 103.792969 54.539062 C 111.101562 43.203125 136.160156 48.871094 161.21875 67.011719 C 185.230469 85.148438 199.851562 108.957031 192.542969 120.292969 Z M 192.542969 120.292969 "/>
<path style=" stroke:none;fill-rule:nonzero;fill:rgb(100%,100%,100%);fill-opacity:1;" d="M 47.410156 40.9375 C 47.410156 39.800781 46.363281 38.667969 45.320312 39.800781 C 44.277344 40.9375 43.230469 40.9375 43.230469 42.070312 C 44.277344 45.46875 45.320312 47.738281 45.320312 50.003906 C 45.320312 51.140625 46.363281 52.273438 47.410156 51.140625 C 48.453125 51.140625 49.496094 50.003906 48.453125 48.871094 C 48.453125 46.605469 48.453125 44.335938 47.410156 40.9375 Z M 47.410156 40.9375 "/>
<path style=" stroke:none;fill-rule:nonzero;fill:rgb(100%,100%,100%);fill-opacity:1;" d="M 52.628906 59.074219 C 52.628906 57.941406 51.585938 56.808594 50.542969 57.941406 C 49.496094 59.074219 49.496094 59.074219 49.496094 60.207031 C 60.984375 88.550781 84.996094 119.160156 116.320312 141.832031 C 117.363281 142.96875 118.410156 141.832031 119.453125 141.832031 C 120.496094 140.699219 119.453125 139.566406 119.453125 138.433594 C 87.085938 115.757812 64.113281 86.28125 52.628906 59.074219 Z M 52.628906 59.074219 "/>
<path style=" stroke:none;fill-rule:nonzero;fill:rgb(100%,100%,100%);fill-opacity:1;" d="M 178.96875 170.175781 C 177.921875 170.175781 176.878906 170.175781 176.878906 171.308594 C 176.878906 172.441406 176.878906 173.578125 177.921875 173.578125 C 181.054688 174.710938 185.230469 175.84375 188.363281 176.976562 C 189.410156 176.976562 190.453125 176.976562 190.453125 175.84375 C 190.453125 174.710938 190.453125 173.578125 189.410156 173.578125 C 186.277344 172.441406 182.101562 171.308594 178.96875 170.175781 Z M 178.96875 170.175781 "/>
<path style=" stroke:none;fill-rule:nonzero;fill:rgb(100%,100%,100%);fill-opacity:1;" d="M 197.761719 174.710938 C 196.71875 174.710938 195.671875 175.84375 195.671875 176.976562 C 195.671875 178.109375 196.71875 179.246094 197.761719 179.246094 C 206.113281 180.378906 215.511719 181.511719 222.820312 180.378906 C 223.863281 180.378906 224.910156 179.246094 224.910156 178.109375 C 224.910156 176.976562 223.863281 175.84375 222.820312 175.84375 C 214.46875 176.976562 206.113281 175.84375 197.761719 174.710938 Z M 197.761719 174.710938 "/>
</g>
</svg>
